build/assets/img/svg/clipper.svg

<svg width="69" height="69" viewBox="0 0 69 69" fill="none" xmlns="http://www.w3.org/2000/svg">
<path d="M44.0597 0.0337567C43.3403 0.0274812 42.809 0.597453 42.853 1.22033L42.8344 4.09319L40.6761 4.07437L40.6461 1.29684C40.6507 0.578628 40.0786 0.0469152 39.4548 0.0893579C38.7354 0.0830825 38.2041 0.653055 38.248 1.27593L38.2295 4.14879L36.0712 4.12997L36.0412 1.35245C36.1414 0.682946 35.5693 0.151234 34.8499 0.144959C34.226 0.187401 33.7433 0.662029 33.6431 1.33153L33.6731 4.10905L31.5619 4.23429L31.5804 1.36142C31.5365 0.738548 30.9643 0.206835 30.2935 0.105216C29.6697 0.147659 29.1384 0.71763 29.1338 1.43585L29.1638 4.21337L27.0055 4.19454L26.9755 1.41702C26.9801 0.698804 26.408 0.167092 25.6886 0.160817C25.0647 0.20326 24.5335 0.773231 24.5774 1.3961L24.5588 4.26897C21.9194 4.48537 19.8899 6.81397 19.8729 9.44743C19.8481 13.2779 23.8292 13.2648 25.1725 13.2286L27.3793 13.1521L27.4394 18.7071C24.8847 20.6481 23.0449 23.3135 23.0248 26.4258L24.733 59.0017C24.7645 61.5398 25.8039 63.9909 27.5674 65.7301C29.4264 67.5181 31.8183 68.4966 34.3606 68.4709L36.7587 68.4918C39.3966 68.5148 41.8024 67.3387 43.4919 65.6775C45.2299 63.921 46.2046 61.5353 46.1731 58.9972L47.1999 26.2536C47.2092 24.8172 46.7389 23.3765 45.9316 22.1245C45.6478 21.4996 45.0255 21.3026 44.3516 21.6798C43.8219 22.0104 43.673 22.7752 44.0054 23.3048C44.623 24.22 44.9522 25.2284 44.946 26.1861L43.9192 58.9296C43.9415 62.9042 40.7553 66.0846 36.8698 66.1465L34.4717 66.1256C30.4906 66.1387 27.2975 62.9505 27.2752 58.976L25.4714 26.3514C25.4491 22.3768 30.0742 19.2089 33.9597 19.1471L36.3578 19.168C37.9408 19.1339 39.5208 19.5786 41.002 20.4535C41.5757 20.7458 42.3437 20.6567 42.6838 19.9893C42.8295 19.7033 42.8796 19.3685 42.7856 19.0804L42.7286 13.0465L45.1267 13.0675C45.9903 13.0271 48.1486 13.0459 49.4039 11.764C49.9352 11.194 50.3725 10.336 50.3316 9.23427C50.3409 7.79784 49.7734 6.54791 48.7247 5.5332C47.7717 4.56721 46.5757 4.07794 45.2811 4.01877L45.2996 1.1459C45.2071 0.61837 44.6835 -0.00868616 44.0597 0.0337567ZM47.8849 9.3087C47.9289 9.93157 47.9242 10.6498 45.1422 10.6734L32.9104 10.8061C32.575 10.7553 32.238 10.9439 31.9966 11.1812C31.7553 11.4185 31.6095 11.7046 31.655 12.088C31.6504 12.8063 32.2225 13.338 32.8463 13.2955L40.2334 13.2163L40.3012 17.5743C39.0096 17.0363 37.5723 16.7844 36.229 16.8206L33.831 16.7996C32.4877 16.8358 31.1429 17.1114 29.7966 17.6264L29.7366 12.0713C29.7867 11.7366 29.597 11.3997 29.3588 11.1582C29.1205 10.9167 28.8336 10.7706 28.4496 10.8151L25.0437 10.8812C22.2617 10.9048 22.2663 10.1866 22.2709 9.46835C22.2332 7.88786 23.4885 6.60594 25.023 6.66721L25.7424 6.67349L34.9037 6.65763L39.5087 6.60203L44.1136 6.54642L45.0728 6.55479C46.5603 6.472 47.8472 7.7282 47.8849 9.3087Z" fill="#444444"/>
</svg>

<svg width="69" height="69" fill="none" xmlns="http://www.w3.org/2000/svg"><path d="M44.06.034c-.72-.007-1.251.563-1.207 1.186l-.019 2.873-2.158-.019-.03-2.777c.005-.718-.567-1.25-1.191-1.208-.72-.006-1.25.564-1.207 1.187l-.018 2.873-2.159-.019-.03-2.778c.1-.67-.472-1.2-1.191-1.207-.624.042-1.107.517-1.207 1.187l.03 2.777-2.111.125.018-2.873C31.537.74 30.964.207 30.294.105c-.624.043-1.156.613-1.16 1.33l.03 2.778-2.159-.018-.03-2.778C26.98.699 26.409.167 25.69.161c-.624.042-1.155.612-1.112 1.235L24.56 4.27c-2.64.216-4.67 2.545-4.686 5.178-.025 3.83 3.956 3.818 5.3 3.782l2.206-.077.06 5.555c-2.554 1.941-4.394 4.607-4.414 7.719l1.708 32.576c.032 2.538 1.07 4.989 2.834 6.728 1.86 1.788 4.251 2.767 6.794 2.74l2.398.022c2.638.023 5.043-1.153 6.733-2.815a9.296 9.296 0 002.681-6.68L47.2 26.254c.01-1.437-.461-2.878-1.268-4.13-.284-.624-.907-.821-1.58-.444-.53.33-.679 1.095-.347 1.625.618.915.947 1.923.941 2.881L43.919 58.93a7.172 7.172 0 01-7.05 7.217l-2.397-.021a7.158 7.158 0 01-7.197-7.15l-1.804-32.625c-.022-3.974 4.603-7.142 8.489-7.204l2.398.021c1.583-.034 3.163.41 4.644 1.285.574.293 1.342.204 1.682-.464.146-.286.196-.62.102-.909l-.057-6.033 2.398.02c.863-.04 3.022-.021 4.277-1.303.531-.57.968-1.428.928-2.53.009-1.436-.559-2.686-1.607-3.7-.953-.967-2.15-1.456-3.444-1.515l.019-2.873C45.207.618 44.684-.01 44.06.034zm3.825 9.275c.044.623.04 1.34-2.743 1.364l-12.232.133c-.335-.05-.672.138-.913.375-.242.238-.387.524-.342.907-.005.718.567 1.25 1.191 1.208l7.387-.08.068 4.358a10.066 10.066 0 00-4.072-.753l-2.398-.021c-1.343.036-2.688.311-4.034.826l-.06-5.555c.05-.334-.14-.671-.378-.913-.239-.241-.525-.387-.91-.343l-3.405.066c-2.782.024-2.778-.694-2.773-1.413-.038-1.58 1.217-2.862 2.752-2.8l.72.005 9.16-.015 4.606-.056 4.605-.056.959.009c1.487-.083 2.774 1.173 2.812 2.754z" fill="#444"/></svg>
